X:532
T:Peggy's Nettles
R:jig
S:Lari Candelay
H:Three part version in A see #443
Z:id:hn-jig-532
M:6/8
L:1/8
K:G
e | dBA G2A | Bee edB | ~A3 e2d | e2d d2e |
dBA G2A | Bee edB | ~A3 ~e3 |1 dBA G2 :|2 G3 GBd ||
|: ~g3 ~f3 | ~e3 dBG | ~A3 e2d | e2d def |
g3 ~f3 | ~e3 dBG | ~A3 ~e3 |1 dBA GBd :|2 dBA G2 ||

